images_sukapura_svg/cmd/lc_zoomnext.svg

<svg viewBox="0 0 24 24" xmlns="http://www.w3.org/2000/svg" xmlns:xlink="http://www.w3.org/1999/xlink"><linearGradient id="a" gradientUnits="userSpaceOnUse" x1="98" x2="98" y1="6" y2="-6"><stop offset="0" stop-color="#0040dd"/><stop offset="1" stop-color="#0a84ff"/></linearGradient><path d="m9.4667969 2a7.5 7.5 0 0 0 -7.5 7.5 7.5 7.5 0 0 0 7.5 7.5 7.5 7.5 0 0 0 4.5429691-1.542969l6.25 6.25c.942508.981667 2.395729-.471553 1.414062-1.414062l-6.248047-6.248047a7.5 7.5 0 0 0 1.541016-4.544922 7.5 7.5 0 0 0 -.017578-.5h-5.025391c.025847.0010285.050108.0078125.076172.0078125h2.941406a5.5 5.5 0 0 1 .025391.4921875 5.5 5.5 0 0 1 -5.5000001 5.5 5.5 5.5 0 0 1 -5.5-5.5 5.5 5.5 0 0 1 5.5-5.5 5.5 5.5 0 0 1 3.1503911 1h2.839843a7.5 7.5 0 0 0 -5.9902341-3z" fill="#69696e"/><path d="m11.5 3.9941406c-.248462 0-.482353.069857-.691406.1816406.647916.1626266 1.260785.4419257 1.808594.8242188h2.839843c-.274236-.3623446-.580835-.6990157-.916015-1.0058594zm.423828 5.0058594c.02585.00103.05011.00781.07617.00781h2.941406c.01581.1636007.02429.327828.02539.4921875-.000691.1689201-.0092.3377187-.02539.505859h1.052735l1.005861-.0058565-.033203-.5c-.000297-.1668158-.00616-.3335752-.017578-.5z" fill="#fff" fill-opacity=".784314"/><path d="m18.855469 2.0078125c-.528794.0055-.929082.4797447-.845703 1.0019531l-.009766-.0097656v2h-6.5c-.277 0-.5.223-.5.5v1.5078125 1.4921875c0 .277.223.5.5.5h6.5v2l.02344-.02148c-.149292.828136.850931 1.36114 1.455078.77539l4.259765-4.1269529c.347612-.3395737.347612-.8987075 0-1.2382812l-4.259765-4.125c-.164621-.1659135-.38934-.2581961-.623049-.2558634z" fill="url(#a)"/></svg>

<?xml version="1.0" encoding="UTF-8" standalone="no"?>
<svg
   xmlns:dc="http://purl.org/dc/elements/1.1/"
   xmlns:cc="http://creativecommons.org/ns#"
   xmlns:rdf="http://www.w3.org/1999/02/22-rdf-syntax-ns#"
   xmlns:svg="http://www.w3.org/2000/svg"
   xmlns="http://www.w3.org/2000/svg"
   xmlns:xlink="http://www.w3.org/1999/xlink"
   xmlns:sodipodi="http://sodipodi.sourceforge.net/DTD/sodipodi-0.dtd"
   xmlns:inkscape="http://www.inkscape.org/namespaces/inkscape"
   viewBox="0 0 24 24"
   version="1.1"
   id="svg8"
   sodipodi:docname="lc_zoomnext.svg"
   inkscape:version="0.92.3 (unknown)"
   inkscape:export-filename="/home/rizmut/Dokumen/Rizmut/Github/libreoffice-style-sukapura/images_sukapura/cmd/lc_zoomnext.png"
   inkscape:export-xdpi="96"
   inkscape:export-ydpi="96">
  <metadata
     id="metadata14">
    <rdf:RDF>
      <cc:Work
         rdf:about="">
        <dc:format>image/svg+xml</dc:format>
        <dc:type
           rdf:resource="http://purl.org/dc/dcmitype/StillImage" />
        <dc:title></dc:title>
      </cc:Work>
    </rdf:RDF>
  </metadata>
  <defs
     id="defs12">
    <linearGradient
       gradientTransform="translate(75,-7)"
       id="a"
       gradientUnits="userSpaceOnUse"
       x1="14"
       x2="13.79661"
       y1="22"
       y2="2.1355929">
      <stop
         offset="0"
         stop-color="#0040dd"
         id="stop2206" />
      <stop
         offset="1"
         stop-color="#0a84ff"
         id="stop2208" />
    </linearGradient>
    <linearGradient
       inkscape:collect="always"
       xlink:href="#a"
       id="linearGradient1525"
       x1="23"
       y1="13"
       x2="23"
       y2="1"
       gradientUnits="userSpaceOnUse" />
  </defs>
  <sodipodi:namedview
     pagecolor="#ffffff"
     bordercolor="#666666"
     borderopacity="1"
     objecttolerance="10"
     gridtolerance="10"
     guidetolerance="10"
     inkscape:pageopacity="0"
     inkscape:pageshadow="2"
     inkscape:window-width="1366"
     inkscape:window-height="699"
     id="namedview10"
     showgrid="true"
     inkscape:snap-global="true"
     inkscape:zoom="32"
     inkscape:cx="20.49853"
     inkscape:cy="14.523527"
     inkscape:window-x="0"
     inkscape:window-y="0"
     inkscape:window-maximized="1"
     inkscape:current-layer="svg8">
    <inkscape:grid
       type="xygrid"
       id="grid821"
       spacingx="0.5"
       spacingy="0.5"
       empspacing="2" />
  </sodipodi:namedview>
  <path
     style="fill:#69696e;fill-opacity:1"
     d="M 9.4667969 2 A 7.5 7.5 0 0 0 1.9667969 9.5 A 7.5 7.5 0 0 0 9.4667969 17 A 7.5 7.5 0 0 0 14.009766 15.457031 L 20.259766 21.707031 C 21.202274 22.688698 22.655495 21.235478 21.673828 20.292969 L 15.425781 14.044922 A 7.5 7.5 0 0 0 16.966797 9.5 A 7.5 7.5 0 0 0 16.949219 9 L 11.923828 9 C 11.949675 9.0010285 11.973936 9.0078125 12 9.0078125 L 14.941406 9.0078125 A 5.5 5.5 0 0 1 14.966797 9.5 A 5.5 5.5 0 0 1 9.4667969 15 A 5.5 5.5 0 0 1 3.9667969 9.5 A 5.5 5.5 0 0 1 9.4667969 4 A 5.5 5.5 0 0 1 12.617188 5 L 15.457031 5 A 7.5 7.5 0 0 0 9.4667969 2 z "
     id="path2" />
  <path
     style="fill:#ffffff;fill-opacity:0.78431373"
     d="m 11.5,3.9941406 c -0.248462,0 -0.482353,0.069857 -0.691406,0.1816406 C 11.45651,4.3384078 12.069379,4.6177069 12.617188,5 h 2.839843 C 15.182795,4.6376554 14.876196,4.3009843 14.541016,3.9941406 Z M 11.923828,9 c 0.02585,0.00103 0.05011,0.00781 0.07617,0.00781 h 2.941406 c 0.01581,0.1636007 0.02429,0.327828 0.02539,0.4921875 -6.91e-4,0.1689201 -0.0092,0.3377187 -0.02539,0.505859 h 1.052735 L 17,10 16.966797,9.5 C 16.9665,9.3331842 16.960637,9.1664248 16.949219,9 Z"
     id="path1527"
     inkscape:connector-curvature="0"
     sodipodi:nodetypes="sccccscscccccccc" />
  <path
     d="m 18.855469,2.0078125 c -0.528794,0.0055 -0.929082,0.4797447 -0.845703,1.0019531 L 18,3 V 5 H 11.5 C 11.223,5 11,5.223 11,5.5 V 7.0078125 8.5 C 11,8.777 11.223,9 11.5,9 H 18 v 2 l 0.02344,-0.02148 c -0.149292,0.828136 0.850931,1.36114 1.455078,0.77539 l 4.259765,-4.1269529 c 0.347612,-0.3395737 0.347612,-0.8987075 0,-1.2382812 l -4.259765,-4.125 C 19.313897,2.0977624 19.089178,2.0054798 18.855469,2.0078125 Z"
     id="path6"
     style="fill:url(#linearGradient1525);fill-opacity:1"
     inkscape:connector-curvature="0"
     sodipodi:nodetypes="ccccsscsscccccccc" />
</svg>
